!!!OTL: Die alte Schwieger und die Schnur
!!!ARE: Europa, Mitteleuropa, Deutschland
!!!SCT: A0235
!!!YEM: Copyright 1995, estate of Helmut Schaffrath.
**kern
*ICvox
*Ivox
*M4/4
*k[b-]
*F:
{4f
4f
4g
4g
=1
4a
4a
2f}
=2
{4g
4a
4b-
4cc
=3
2a
2g}
=4
{4d
4e
2f
=5
4d
4e
2f}
=6
{4g
4f
4e
4f
=7
2d
2c}
==
!!!AGN: Romanze, Ballade, Lied
!! Melch. Franck, Fasc. quodl. 1611 No. 3.
!!!ONB: ESAC (Essen Associative Code) Database: ALTDEU
!!!AMT: simple quadruple
!!!AIN: vox
!!!EED: Helmut Schaffrath
!!!EEV: 1.0
*-
